X:175
T: ES STEHT EIN WIRTHSHAUS AN DER LAHN
N: Z0174
O: Europa, Mitteleuropa, Deutschland, Duesseldorf
R: Schiffer -, Handwerker - Lied
M: 3/4
L: 1/16
K: F
C2F2G2 | A4F4G2G2 | F4z2
f2e2d2 | e4c4G2G2 | c4z2
c2c2c2 | c2f2f4d2d2 | d2d2f2d2
d2c2 | c4A2B2c2c2 | dcBAB4c4 | A4z2
c2c2c2 | c2f2f4d2d2 | d2d2f2d2
d2c2 | c4A2B2c2c2 | dcBAB4c4 | A4z2

